X: 32726
T: Poll Ha'Penny
R: hornpipe
M: 4/4
K: Amixolydian
|:(3GAB|=cAAG A2 (3AB^c|dcAF G2 (3Bcd|edcA dcAG|A3G A2de|
f3d e3c|d2 (3Bcd efge|aged =cAGB|A3G A2:|
|:ef|g3f gfef|g3a gedg|eaag a3g|eaag a3g|
f3d e3c|d2 (3Bcd efge|aged =cAGB|A3G A2:|

